X:1
T:Title
%%score 1 { 2 | 3 }
L:1/8
Q:1/4=100
M:4/4
K:Ab
V:1 treble nm="Grand Piano, Soprano"
V:2 treble nm="Choir Pad, There’s a Light in the Windo"
V:3 bass 
V:1
 [CE][DF] [EA]2 [EA][EA] [EB]<[Ac] | [EB][EB] [EA]6 | [EA][Ec] [Ae]2 [Ae][Ae][Ac][EB] | %3
w: By~T.~P.~Burt * * * * * *|||
 [FA]2 [GB]6 | [CE][DF][EA][EA] [EA][EB][Ac][Ac] | [EB][EB] [EA]6 | %6
w: |||
 [Ae][Af] [Ae]2 [Ec][EA] [FB]<[Ac] | [EB]2 [EA]6 | [CE][DF] [EA]2 [EA][EA][FB][FA] | [DF]2 [CA]6 | %10
w: ||||
 [CA][Ec] [Ae]2 [Ae][Ae][Af][Ae] | [Ac]2 [GB]6 | [Ae][Ae][Ac][Ae] [Ec][EB] [EA]2 | %13
w: |||
 [Ec][DB][CA][CA] [EB][Ec] [Fd]2 | [Ae][Af] [Ge]2 [Ac][EA] [EB]<[Ac] | [EB]2 [EA]6- | %16
w: |||
 [EA]2 z2 z4 |] %17
w: |
V:2
 A,B, C2 CC D<E | DD C6 | CA, C2 CCEE | =D2 E6 | A,B,CC CDEE | DD C6 | CD C2 A,C D<E | D2 C6 | %8
 A,B, C2 CCDD | A,2 A,6 | E,A, C2[K:treble] CCDC | E2 E6 | CCEC EC C2 | A,G,A,A, G,A, A,2 | %14
 A,G, E,2 A,[K:treble]C D<E | D2 C6- | C2 z2 z4 |] %17
V:3
 A,,A,, A,,2 A,,A,, A,,<A,, | A,,A,, A,,6 | A,,A,, A,2 A,A,A,G, | F,2 E,6 | z A,A,A, A,A,A,A, | %5
 A,A, A,6 | A,A, A,2 z A, E,<E, | E,2 A,,6 | A,,A,, A,,2 A,,A,,D,D, | D,2 A,,6 | %10
 A,,A,, A,2 A,A,A,A, | A,2 E,6 | A,A,A,A, A,A, A,2 | z E,F,F, E,E, D,2 | C,D, z2 E,E, E,<E, | %15
 E,2 A,,6- | A,,2 z2 z4 |] %17

